X:1
T:Title
%%score { ( 1 4 ) | ( 2 3 ) }
L:1/8
M:4/4
K:Ab
V:1 treble nm="Grand Piano"
V:4 treble 
V:2 bass 
V:3 bass 
V:1
 z4 z2[Q:1/4=112] [CE]2 | [CE]4 [DF]2 [DG]2 | [CA]2 [CA]4 [EA]2 | B4 A3 G | [CA]6 [CA][EG] | %5
 [A,DF]4 [A,FA]3 [A,DF] | [DF]2 [CE]4 [Ec]2 | [EB]4 [=DB]3 [FB] | [EB]6 [F_c]2 | %9
 [Ec]4 [CEG]2 [CGB]2 | [CGB]2 [CFA]4 [A,FA]2 | [A,FA]4 [A,EG]2 [A,DF]2 | [CE]6 [A,CE]2 | %13
 [CA]4 [CE]2 [CA]2 | [Ec]2 [CA]4 E2 | B8 |[M:3/4] [CA]6 | [FA][EG] [DF]3 [Fd] | [Fd]2 [Fd] [DF]3 | %19
 [DA]2 [CE]2 [EA]2- | [EA]B c4 | [Ec]2 [=Dc]2 [DB]2- | [DB][=DB] [Dc]2 [DB]2- | %23
 [DB][=DB] [AB]2 [Ac]2 | [A=d]2 [Ge]4 | [E,E]2 [Ec]3 [Fd] | [Ec]2 B2 c2- | cB A2 G2- | GF E4 | %29
 [CE]2 [CA]4 | [CE][CA] [Ec] .[CA]3 | E2 B4- | B2 [CA]4- | [CA]2 z2 z2 |] %34
V:2
 z4 z2 [A,,A,]2 | [A,,A,]4 [A,,A,]2 [A,,A,]2 | [A,,E,]2 [A,,E,]4 [C,A,]2 | %3
 [E,G,D]4 [E,A,C]3 [E,B,D] | z4 z2 A,2 | D,4 D,3 D, | [A,,A,]2 [A,,A,]4 [A,,A,]2 | %7
 [B,,G,]4 [B,,F,]3 [B,,A,] | [E,G,]6 [=D,G,]2 | [C,G,]4 C,2 E,2 | F,2 F,4 C,2 | D,4 D,2 F,2 | %12
 A,6 A,,2 | [A,,E,]4 [A,,A,]2 [A,,A,]2 | [A,,A,]2 [A,,E,]4 [E,G,]2 | [E,D]8 |[M:3/4] [A,,E,]6 | %17
 [A,,A,][C,A,] [D,A,]3 [D,A,] | [D,A,]2 [D,A,] [D,A,]3 | [D,A,]2 [A,,A,]2 [C,A,]2- | %20
 [C,A,][E,G,E] [A,E]4 | [A,,A,]2 [B,,A,]2 [B,,A,]2- | [B,,A,][B,,A,] [B,,A,]2 [B,,A,]2- | %23
 [B,,A,][B,,B,] [B,,B,]2 [B,,B,]2 | [B,,B,]2 [E,B,]4 | z2 [A,,A,]3 [A,,A,] | %26
 [A,,A,]2 [E,G,D]2 [E,G,E]2- | [E,G,E][=E,G,D] [F,A,C]2 [D,A,E]2- | [D,A,E][F,A,D] [A,C]4 | %29
 [A,,A,]2 [A,,E,]4 | [A,,A,][A,,A,] [A,,A,] .[A,,E,]3 | E,2 [E,G,D]4- | [E,G,D]2 [A,,E,]4- | %33
 [A,,E,]2 z2 z2 |] %34
V:3
 x8 | x8 | x8 | x8 | [A,,A,]6 A,,C, | x8 | x8 | x8 | x8 | x8 | x8 | x8 | x8 | x8 | x8 | G,4 z4 | %16
[M:3/4] x6 | x6 | x6 | x6 | x6 | x6 | x6 | x6 | x6 | x6 | x6 | x6 | x6 | x6 | x6 | x6 | x6 | x6 |] %34
V:4
 x8 | x8 | x8 | x8 | x8 | x8 | x8 | x8 | x8 | x8 | x8 | x8 | x8 | x8 | x8 | z4 F,4 |[M:3/4] x6 | %17
 x6 | x6 | x6 | x6 | x6 | x6 | x6 | x6 | x6 | x6 | x6 | x6 | x6 | x6 | x6 | x6 | x6 |] %34

